X:1
T:The L & N Don't Stop Here Anymore
M:4/4
L:1/4
K:C
 E| A/2 A3/2 A E| G G G A| G E3-| E2 A2| A/2 A3/2 A E| G3/2 G/2 A B|\
 A4-| A3 E| A A A E| G G A A| G E3-| E2 E2| D D E E| E E3-| E2 B,2|\
 A,4-| A, A, B, C| D D D D/2D/2| D D/2D/2 E D| C A,3-| A,4| D D D/2D/2 D/2D/2|\
 D/2D/2 D E F| E4-| E4| A A A A| c A c3/2 c/2| B A3-| A4| z4| z2 E E|\
 E/2E/2 E3-| E2 E2| E D C/2 B,3/2| A,4-| A,4| z4| z2 z||
